X: 2159
T: HAGGS CASTLE
C: Carl Volti
Q: "Strathspey."
R: Strathspey.
%R: strathspey
B: James Kerr "Merry Melodies" v.2 p.19 #159
Z: 2016 John Chambers <jc:trillian.mit.edu>
M: C
L: 1/8
K: D
ug |\
(f<a)ud>uc vB>vduA>uG | F>Ad>f vf<ee>ug |\
(f<a) d>c B>dA>G | (3FAd (3cde f<d d :|
|: uB |\
vA<D F>uD vA>vDud>uB | vA<DF>uD (E<A)uA,>uB |\
A<DF>D A>Dd>g | (f<a)ue>ug f<d d :|

%%sep 1 1 500
%%sep 1 1 500

